www/assets/icons/masks.svg

<svg xmlns="http://www.w3.org/2000/svg" width="24" height="24" viewBox="0 0 24 24" fill='currentColor'><path d="M19.5 6c-1.31 0-2.37 1.01-2.48 2.3-1.88-.5-2.84-1.8-5.02-1.8-2.19 0-3.14 1.3-5.02 1.8C6.87 7.02 5.81 6 4.5 6A2.5 2.5 0 0 0 2 8.5V9c0 6 3.6 7.81 6.52 7.98A6.5 6.5 0 0 0 12 18c1.28 0 2.47-.38 3.48-1.02C18.4 16.81 22 15 22 9v-.5A2.5 2.5 0 0 0 19.5 6m-16 3v-.5c0-.55.45-1 1-1s1 .45 1 1v3c0 1.28.38 2.47 1.01 3.48C4.99 14.27 3.5 12.65 3.5 9m17 0c0 3.65-1.49 5.27-3.01 5.98.64-1.01 1.01-2.2 1.01-3.48v-3c0-.55.45-1 1-1s1 .45 1 1zm-9.81 1.48c-.44.26-.96.56-1.69.76V10.2c.48-.17.84-.38 1.18-.58C10.72 9.3 11.23 9 12 9s1.27.3 1.8.62c.34.2.71.42 1.2.59v1.04c-.75-.21-1.26-.51-1.71-.78-.46-.27-.8-.47-1.29-.47s-.84.2-1.31.48"/></svg>

<svg width="24" height="24" viewBox="0 0 24 24" xmlns="http://www.w3.org/2000/svg" fill='currentColor'><path d="M19.5 6C18.19 6 17.13 7.01 17.02 8.3C15.14 7.8 14.18 6.5 12 6.5C9.81 6.5 8.86 7.8 6.98 8.3C6.87 7.02 5.81 6 4.5 6C3.12 6 2 7.12 2 8.5V9C2 15 5.6 16.81 8.52 16.98C9.53 17.62 10.72 18 12 18C13.28 18 14.47 17.62 15.48 16.98C18.4 16.81 22 15 22 9V8.5C22 7.12 20.88 6 19.5 6ZM3.5 9V8.5C3.5 7.95 3.95 7.5 4.5 7.5C5.05 7.5 5.5 7.95 5.5 8.5V11.5C5.5 12.78 5.88 13.97 6.51 14.98C4.99 14.27 3.5 12.65 3.5 9ZM20.5 9C20.5 12.65 19.01 14.27 17.49 14.98C18.13 13.97 18.5 12.78 18.5 11.5V8.5C18.5 7.95 18.95 7.5 19.5 7.5C20.05 7.5 20.5 7.95 20.5 8.5V9ZM10.69 10.48C10.25 10.74 9.73 11.04 9 11.24V10.2C9.48 10.03 9.84 9.82 10.18 9.62C10.72 9.3 11.23 9 12 9C12.77 9 13.27 9.3 13.8 9.62C14.14 9.82 14.51 10.04 15 10.21V11.25C14.25 11.04 13.74 10.74 13.29 10.47C12.83 10.2 12.49 10 12 10C11.51 10 11.16 10.2 10.69 10.48Z"/></svg>
